Newaita/actions/24/tab-duplicate.svg

<?xml version="1.0" encoding="UTF-8"?>
<svg xmlns="http://www.w3.org/2000/svg" xmlns:xlink="http://www.w3.org/1999/xlink" width="24pt" height="24pt" viewBox="0 0 24 24" version="1.1">
<g id="surface1">
<path style=" stroke:none;fill-rule:nonzero;fill:rgb(25.882354%,25.882354%,25.882354%);fill-opacity:1;" d="M 2.480469 1.179688 C 1.65625 1.179688 0.992188 1.84375 0.992188 2.667969 L 0.992188 21.523438 C 0.992188 22.347656 1.65625 23.011719 2.480469 23.011719 L 11.410156 23.011719 C 11.496094 23.011719 11.578125 23.003906 11.660156 22.988281 C 11.738281 23.003906 11.824219 23.011719 11.90625 23.011719 L 21.335938 23.011719 C 22.160156 23.011719 22.824219 22.347656 22.824219 21.523438 L 22.824219 13.582031 C 22.824219 12.757812 22.160156 12.09375 21.335938 12.09375 L 12.898438 12.09375 L 12.898438 2.667969 C 12.898438 1.84375 12.234375 1.179688 11.410156 1.179688 Z M 3.472656 2.667969 L 10.417969 2.667969 C 10.96875 2.667969 11.410156 3.109375 11.410156 3.660156 L 11.410156 13.582031 L 20.339844 13.582031 C 20.890625 13.582031 21.335938 14.027344 21.335938 14.574219 L 21.335938 20.527344 C 21.335938 21.078125 20.890625 21.523438 20.339844 21.523438 L 3.472656 21.523438 C 2.921875 21.523438 2.480469 21.078125 2.480469 20.527344 L 2.480469 3.660156 C 2.480469 3.109375 2.921875 2.667969 3.472656 2.667969 Z M 3.472656 2.667969 "/>
<path style=" stroke:none;fill-rule:nonzero;fill:rgb(47.058824%,56.470591%,61.176473%);fill-opacity:1;" d="M 14.882812 3.660156 L 19.84375 3.660156 C 20.394531 3.660156 20.839844 4.105469 20.839844 4.652344 C 20.839844 5.199219 20.394531 5.644531 19.84375 5.644531 L 14.882812 5.644531 C 14.335938 5.644531 13.890625 5.199219 13.890625 4.652344 C 13.890625 4.105469 14.335938 3.660156 14.882812 3.660156 Z M 14.882812 3.660156 "/>
<path style=" stroke:none;fill-rule:nonzero;fill:rgb(47.058824%,56.470591%,61.176473%);fill-opacity:1;" d="M 16.867188 7.628906 L 21.832031 7.628906 C 22.378906 7.628906 22.824219 8.074219 22.824219 8.621094 C 22.824219 9.171875 22.378906 9.613281 21.832031 9.613281 L 16.867188 9.613281 C 16.320312 9.613281 15.875 9.171875 15.875 8.621094 C 15.875 8.074219 16.320312 7.628906 16.867188 7.628906 Z M 16.867188 7.628906 "/>
</g>
</svg>

<svg xmlns="http://www.w3.org/2000/svg" width="32" height="32" viewBox="0 0 24 24"><path d="M2.48 1.18c-.824 0-1.488.664-1.488 1.488v18.855c0 .825.664 1.489 1.488 1.489h8.93c.086 0 .168-.008.25-.024.078.016.164.024.246.024h9.43c.824 0 1.488-.664 1.488-1.489v-7.941c0-.824-.664-1.488-1.488-1.488h-8.438V2.668c0-.824-.664-1.488-1.488-1.488zm.993 1.488h6.945c.55 0 .992.441.992.992v9.922h8.93c.55 0 .996.445.996.992v5.953c0 .551-.445.996-.996.996H3.473a.992.992 0 0 1-.993-.996V3.66c0-.55.442-.992.993-.992zm0 0" fill="#424242"/><path d="M14.883 3.66h4.96c.552 0 .997.445.997.992a.994.994 0 0 1-.996.993h-4.961a.994.994 0 0 1-.992-.993c0-.547.445-.992.992-.992zm0 0M16.867 7.629h4.965a.991.991 0 1 1 0 1.984h-4.965a.991.991 0 1 1 0-1.984zm0 0" fill="#78909c"/></svg>
